img/icones/dec-formacao.svg

<svg width="100" height="100" viewBox="0 0 100 100" fill="none" xmlns="http://www.w3.org/2000/svg">
<path d="M89.5238 0H20.1564C14.3801 0 9.68103 4.34277 9.68103 9.6807V13.827L4.72476 13.8278C2.12007 13.8278 0 15.7868 0 18.1941V21.2522C0 23.6593 2.11986 25.6186 4.72476 25.6186H9.68103V34.0156L4.72476 34.0148C2.12007 34.0148 0 35.9739 0 38.3812V41.4393C0 43.8464 2.11986 45.8056 4.72476 45.8056H9.68103V54.2026L4.72476 54.2019C2.12007 54.2019 0 56.1609 0 58.5682V61.6264C0 64.0335 2.11986 65.9927 4.72476 65.9927H9.68103V74.3897L4.72476 74.389C2.12007 74.389 0 76.348 0 78.7553V81.8134C0 84.2205 2.11986 86.1797 4.72476 86.1797H9.68103V90.3193C9.68103 95.6574 14.3803 100 20.1564 100H89.5238C95.3001 100 99.9992 95.6572 99.9992 90.3193L100 9.68262C100 4.3445 95.3007 0.00116548 89.5246 0.00116548L89.5238 0ZM3.49221 21.2515V18.1934C3.49221 17.5651 4.04468 17.0538 4.72533 17.0538H15.965C16.6448 17.0538 17.1981 17.5643 17.1981 18.1934V21.2515C17.1981 21.8798 16.6456 22.3911 15.965 22.3911H4.72451C4.05662 22.3918 3.49219 21.8687 3.49219 21.2515H3.49221ZM3.49221 41.437V38.3789C3.49221 37.7506 4.04468 37.2393 4.72533 37.2393H15.965C16.6329 37.2393 17.1981 37.7609 17.1981 38.3789V41.437C17.1981 42.0653 16.6456 42.5766 15.965 42.5766H4.72451C4.05662 42.5766 3.49219 42.055 3.49219 41.437H3.49221ZM3.49221 61.6226V58.5644C3.49221 57.9362 4.04468 57.4249 4.72533 57.4249H15.965C16.6448 57.4249 17.1981 57.9354 17.1981 58.5644V61.6226C17.1981 62.2508 16.6456 62.7621 15.965 62.7621H4.72451C4.05662 62.7621 3.49219 62.2398 3.49219 61.6226H3.49221ZM3.49221 81.8081V78.75C3.49221 78.1327 4.05662 77.6104 4.72533 77.6104H15.965C16.6448 77.6104 17.1981 78.121 17.1981 78.75V81.8081C17.1981 82.4364 16.6456 82.9477 15.965 82.9477H4.72451C4.04468 82.9477 3.49219 82.4371 3.49219 81.8081H3.49221ZM13.1724 90.3191V86.1727H15.965C18.5697 86.1727 20.6898 84.2137 20.6898 81.8064V78.7483C20.6898 76.3412 18.5699 74.382 15.965 74.382H13.1724V65.9849H15.965C18.5697 65.9849 20.6898 64.0259 20.6898 61.6186V58.5605C20.6898 56.1534 18.5699 54.1942 15.965 54.1942H13.1724V45.7971H15.965C18.5697 45.7971 20.6898 43.8381 20.6898 41.4308V38.3727C20.6898 35.9656 18.5699 34.0064 15.965 34.0064H13.1724V25.6093H15.965C18.5697 25.6093 20.6898 23.6503 20.6898 21.243V18.1849C20.6898 15.7778 18.5699 13.8186 15.965 13.8186H13.1724V9.68107C13.1724 6.12195 16.3058 3.2269 20.1564 3.2269H26.15V96.7757H20.1564C16.3051 96.7742 13.1724 93.8786 13.1724 90.3187V90.3191ZM96.5078 90.3191C96.5078 93.8782 93.3745 96.7733 89.5238 96.7733L29.641 96.774V3.22707H89.5238C93.3751 3.22707 96.5078 6.12269 96.5078 9.68124V90.3191ZM92.6086 54.9803L90.3653 53.784V41.7859V41.7852C90.3653 41.1908 90.011 40.6434 89.4442 40.3638L62.3396 26.9606C61.8246 26.706 61.2068 26.706 60.6934 26.9606L33.5888 40.3638C33.022 40.6441 32.6677 41.1907 32.6677 41.7852C32.6677 42.3803 33.022 42.9269 33.5888 43.2065L41.2374 46.9894V62.585C41.2374 63.1611 41.5701 63.6937 42.1098 63.9814L57.5855 72.2386C58.8346 72.9052 60.1743 73.2384 61.5157 73.2384C62.8563 73.2384 64.1976 72.9059 65.4459 72.2386L80.9216 63.9814C81.4613 63.6937 81.7941 63.1603 81.7941 62.585L81.7949 46.9894L86.8746 44.477V53.7833L84.6313 54.9795C84.0915 55.2672 83.7588 55.8005 83.7588 56.3758V65.1569C83.7588 65.7675 84.1329 66.3266 84.7244 66.6003C84.972 66.7143 85.2379 66.7702 85.5046 66.7702C85.8763 66.7702 86.2449 66.6606 86.5546 66.4458L88.6204 65.0097L90.6863 66.4458C91.2157 66.8129 91.9226 66.8732 92.5149 66.5995C93.1071 66.3259 93.4805 65.7682 93.4805 65.1561V56.3751C93.4797 55.8013 93.1469 55.2686 92.6072 54.9803L92.6086 54.9803ZM63.7025 69.4452C62.2934 70.1963 60.7412 70.1963 59.333 69.4452L44.7299 61.6537V59.4342L58.1986 66.6202C59.2534 67.183 60.3847 67.464 61.5174 67.464C62.6494 67.464 63.7822 67.183 64.8362 66.6202L78.3049 59.4342V61.6537L63.7025 69.4452ZM78.3056 55.7101L63.0911 63.8276C62.0769 64.369 60.9592 64.369 59.9443 63.8276L44.7299 55.7101L44.7307 48.7152L60.6951 56.6097C60.9522 56.737 61.2348 56.801 61.519 56.801C61.8032 56.801 62.085 56.737 62.343 56.6097L78.3057 48.7152L78.3056 55.7101ZM61.5172 53.3589L38.1135 41.7853L61.5172 30.2116L84.9209 41.7853L61.5172 53.3589ZM89.9893 61.9281L89.6684 61.7051C89.358 61.4896 88.9886 61.3807 88.62 61.3807C88.2507 61.3807 87.8821 61.4881 87.5716 61.7051L87.2508 61.9281V57.3088L88.6216 56.5783L89.9925 57.3088L89.9917 61.9281H89.9893Z" fill="#292929"/>
</svg>

<svg width="100" height="100" fill="none" xmlns="http://www.w3.org/2000/svg"><path d="M89.524 0H20.156C14.38 0 9.681 4.343 9.681 9.68v4.147H4.725C2.12 13.828 0 15.788 0 18.195v3.058c0 2.407 2.12 4.367 4.725 4.367H9.68v8.397l-4.956-.001C2.12 34.015 0 35.974 0 38.38v3.058c0 2.407 2.12 4.367 4.725 4.367H9.68v8.397l-4.956-.001C2.12 54.202 0 56.16 0 58.568v3.058c0 2.408 2.12 4.367 4.725 4.367H9.68v8.397l-4.956-.001C2.12 74.389 0 76.348 0 78.755v3.058c0 2.407 2.12 4.367 4.725 4.367H9.68v4.14c0 5.337 4.7 9.68 10.475 9.68h69.368c5.776 0 10.475-4.343 10.475-9.68L100 9.682C100 4.345 95.3 0 89.525 0L89.524 0ZM3.492 21.252v-3.059c0-.628.553-1.14 1.233-1.14h11.24c.68 0 1.233.511 1.233 1.14v3.058c0 .629-.552 1.14-1.233 1.14H4.725c-.668 0-1.233-.522-1.233-1.14Zm0 20.185v-3.058c0-.628.553-1.14 1.233-1.14h11.24c.668 0 1.233.522 1.233 1.14v3.058c0 .628-.552 1.14-1.233 1.14H4.725c-.668 0-1.233-.522-1.233-1.14Zm0 20.186v-3.059c0-.628.553-1.14 1.233-1.14h11.24c.68 0 1.233.511 1.233 1.14v3.059c0 .628-.552 1.14-1.233 1.14H4.725c-.668 0-1.233-.523-1.233-1.14Zm0 20.185V78.75c0-.617.565-1.14 1.233-1.14h11.24c.68 0 1.233.511 1.233 1.14v3.058c0 .628-.552 1.14-1.233 1.14H4.725c-.68 0-1.233-.51-1.233-1.14Zm9.68 8.511v-4.146h2.793c2.605 0 4.725-1.96 4.725-4.367v-3.058c0-2.407-2.12-4.366-4.725-4.366h-2.793v-8.397h2.793c2.605 0 4.725-1.96 4.725-4.366V58.56c0-2.407-2.12-4.366-4.725-4.366h-2.793v-8.397h2.793c2.605 0 4.725-1.959 4.725-4.366v-3.058c0-2.407-2.12-4.367-4.725-4.367h-2.793V25.61h2.793c2.605 0 4.725-1.959 4.725-4.366v-3.058c0-2.407-2.12-4.366-4.725-4.366h-2.793V9.68c0-3.559 3.134-6.454 6.984-6.454h5.994v93.549h-5.994c-3.85-.002-6.984-2.897-6.984-6.457Zm83.336 0c0 3.56-3.133 6.454-6.984 6.454l-59.883.001V3.227h59.883c3.851 0 6.984 2.896 6.984 6.454V90.32Zm-3.9-35.339-2.243-1.196V41.786c0-.595-.354-1.143-.92-1.422L62.34 26.96a1.87 1.87 0 0 0-1.647 0L33.59 40.364c-.567.28-.921.827-.921 1.421 0 .595.354 1.142.92 1.422l7.65 3.782v15.596c0 .576.332 1.109.872 1.396l15.476 8.258a8.32 8.32 0 0 0 3.93 1c1.34 0 2.682-.333 3.93-1l15.476-8.258c.54-.287.872-.82.872-1.396V46.989l5.08-2.512v9.306l-2.243 1.197c-.54.287-.872.82-.872 1.396v8.78c0 .611.374 1.17.965 1.444a1.862 1.862 0 0 0 1.83-.154l2.066-1.436 2.066 1.436c.53.367 1.237.427 1.829.154.592-.274.966-.832.966-1.444v-8.78c-.001-.575-.334-1.107-.874-1.396h.002ZM63.703 69.445c-1.409.751-2.96.751-4.369 0L44.73 61.654v-2.22l13.469 7.186a7.027 7.027 0 0 0 3.318.844 7.027 7.027 0 0 0 3.32-.844l13.468-7.186v2.22l-14.603 7.791ZM78.306 55.71 63.09 63.828a3.251 3.251 0 0 1-3.147 0L44.73 55.71v-6.995l15.965 7.895a1.86 1.86 0 0 0 1.648 0l15.963-7.895v6.995ZM61.517 53.36 38.113 41.785l23.404-11.573 23.404 11.573L61.517 53.36Zm28.472 8.57-.32-.224a1.841 1.841 0 0 0-1.049-.324c-.37 0-.738.107-1.048.324l-.321.223v-4.62l1.37-.73 1.372.73-.001 4.62h-.003Z" fill="#292929"/></svg>
